public/assets/images/icons/aur-icon5.svg

<svg width="46" height="45" viewBox="0 0 46 45" fill="none" xmlns="http://www.w3.org/2000/svg">
<rect x="0.117188" width="45" height="45" rx="22.5" fill="#3C5AA4"/>
<path d="M33.3344 19.5517L13.1172 22.0781L14.9709 36.912L35.1881 34.3856L33.3344 19.5517Z" fill="#E2BE47"/>
<path d="M28.4857 8.29154C26.8132 7.07426 23.9406 11.7526 23.2451 12.6981C23.1243 12.4522 22.8852 12.2794 22.6046 12.2497C22.2214 12.2096 21.9116 12.2484 21.5502 12.3814C21.3104 12.4699 21.1315 12.6638 21.0577 12.8983C20.12 12.1243 16.3507 8.39888 15.0446 9.97143C13.5307 11.7932 15.7 15.2171 15.7 15.2171C15.7 15.2171 14.8857 18.7203 17.3307 18.2511C19.598 17.8161 21.5129 16.609 21.7788 16.4359C21.8677 16.4819 21.9646 16.5144 22.0681 16.5253C22.4513 16.5654 22.7609 16.5268 23.1225 16.3936C23.2474 16.3474 23.3552 16.2723 23.441 16.1784C24.0475 16.3735 26.2006 17.0041 28.3073 16.8793C30.7926 16.7321 29.1412 13.5373 29.1412 13.5373C29.1412 13.5373 30.4013 9.68468 28.4857 8.29154Z" fill="#4E8B5C"/>
<path d="M34.8838 19.3558L10.6711 22.3817L10.0469 17.3862L34.8737 14.5088L34.8838 19.3558Z" fill="#E2BE47"/>
<path d="M24.4546 15.062L20.6211 15.541L23.1566 35.8312L26.9901 35.3522L24.4546 15.062Z" fill="#4E8B5C"/>
<path d="M21.3877 15.1744C21.3877 15.1744 20.6096 13.676 20.9928 13.0723" stroke="#333331" stroke-width="0.253759" stroke-miterlimit="10" stroke-linecap="round" stroke-linejoin="round"/>
<path d="M23.2422 12.6973C23.2422 12.6973 23.9004 13.8425 23.6355 14.8936" stroke="#333331" stroke-width="0.253759" stroke-miterlimit="10" stroke-linecap="round" stroke-linejoin="round"/>
<path d="M20.8977 13.7012C20.8977 13.7012 16.3072 14.1623 21.1761 14.7017" stroke="#333331" stroke-width="0.253759" stroke-miterlimit="10" stroke-linecap="round" stroke-linejoin="round"/>
<path d="M23.5781 13.2389C23.5781 13.2389 28.9685 12.3718 23.7012 14.2237" stroke="#333331" stroke-width="0.253759" stroke-miterlimit="10" stroke-linecap="round" stroke-linejoin="round"/>
<path d="M10.3008 22.2807L34.5135 19.2549" stroke="#333331" stroke-width="0.253759" stroke-miterlimit="10"/>
</svg>

<svg xmlns="http://www.w3.org/2000/svg" width="46" height="45" fill="none"><rect width="45" height="45" x=".117" fill="#3C5AA4" rx="22.5"/><path fill="#E2BE47" d="m33.334 19.552-20.217 2.526 1.854 14.834 20.217-2.526z"/><path fill="#4E8B5C" d="M28.486 8.292c-1.673-1.218-4.545 3.46-5.24 4.406a.81.81 0 0 0-.641-.448 2.2 2.2 0 0 0-1.055.131.81.81 0 0 0-.492.517c-.938-.774-4.707-4.5-6.013-2.927-1.514 1.822.655 5.246.655 5.246s-.814 3.503 1.63 3.034c2.268-.435 4.183-1.642 4.449-1.815a.8.8 0 0 0 .29.09c.382.04.692 0 1.053-.132a.8.8 0 0 0 .319-.216c.607.195 2.76.826 4.866.701 2.486-.147.834-3.342.834-3.342s1.26-3.852-.655-5.245"/><path fill="#E2BE47" d="M34.884 19.356 10.67 22.382l-.624-4.996 24.827-2.877z"/><path fill="#4E8B5C" d="m24.455 15.062-3.834.479 2.536 20.29 3.833-.479z"/><path stroke="#333331" stroke-linecap="round" stroke-linejoin="round" stroke-miterlimit="10" stroke-width=".254" d="M21.388 15.174s-.778-1.498-.395-2.102M23.242 12.697s.658 1.146.393 2.197"/><path stroke="#333331" stroke-linecap="round" stroke-linejoin="round" stroke-miterlimit="10" stroke-width=".254" d="M20.898 13.701s-4.59.461.278 1M23.578 13.239s5.39-.867.123.985"/><path stroke="#333331" stroke-miterlimit="10" stroke-width=".254" d="m10.3 22.28 24.213-3.025"/></svg>
